img/t2.svg

<svg width="24" height="22" viewBox="0 0 24 22" fill="none" xmlns="http://www.w3.org/2000/svg">
<path d="M13.1745 0.721514L15.8505 5.89832C16.0435 6.27492 16.42 6.53698 16.8567 6.59871L22.8509 7.44121C23.2034 7.4889 23.5212 7.6678 23.7341 7.93831C23.9471 8.20882 24.0376 8.54865 23.9856 8.8826C23.9441 9.15939 23.8089 9.4159 23.6002 9.61344L19.2544 13.6737C18.9361 13.9607 18.7913 14.3803 18.8691 14.7902L19.9395 20.505C20.0577 21.1887 19.5849 21.8387 18.8691 21.9769C18.5761 22.0213 18.2758 21.975 18.0127 21.8449L12.6607 19.155C12.2644 18.9617 11.794 18.9617 11.3977 19.155L6.04565 21.8449C5.3864 22.1832 4.56279 21.9516 4.20456 21.3272C4.06882 21.0773 4.0201 20.793 4.06541 20.5152L5.13581 14.8004C5.21355 14.3904 5.06876 13.9709 4.75046 13.6838L0.404634 9.62359C0.14968 9.38515 0.00614929 9.05976 0.00614929 8.72019C0.00614929 8.38062 0.14968 8.05522 0.404634 7.81678C0.610022 7.61514 0.881976 7.48619 1.17532 7.45136L7.16957 6.60886C7.60628 6.54713 7.98276 6.28507 8.17575 5.90847L10.7554 0.721514C10.981 0.279069 11.4575 0.00160025 11.9757 0.0109724H12.1362C12.5871 0.0652149 12.9782 0.332808 13.1745 0.721514Z" fill="#FFCF5E"/>
<path d="M12.0079 19.0022C11.7734 19.0007 11.553 19.0752 11.3444 19.1767L6.00928 21.8601C5.3694 22.1712 4.55689 21.9212 4.20463 21.3267C4.06829 21.0806 4.01948 20.7994 4.06548 20.5248L5.13588 14.8202C5.20776 14.4076 5.06411 13.9875 4.75054 13.6935L0.394006 9.63323C-0.131335 9.13398 -0.131335 8.32567 0.394006 7.82642C0.599491 7.63052 0.865912 7.50242 1.15399 7.461L7.16965 6.60835C7.63322 6.54343 7.96455 6.29611 8.17582 5.90796L10.7891 0.661547C10.9883 0.23476 11.6579 -0.0601762 12.0186 0.0104565C12.0079 0.355577 12.0079 18.7688 12.0079 19.0022Z" fill="url(#paint0_linear)"/>
<defs>
<linearGradient id="paint0_linear" x1="-18" y1="11.5" x2="4.5713" y2="-4.3131" gradientUnits="userSpaceOnUse">
<stop stop-color="#FECA52"/>
<stop offset="0.515625" stop-color="#FFCE5F"/>
<stop offset="1" stop-color="#FF644E"/>
</linearGradient>
</defs>
</svg>

<svg width="24" height="22" viewBox="0 0 24 22" fill="none" xmlns="http://www.w3.org/2000/svg"><path d="M13.175.722l2.675 5.176c.194.377.57.639 1.007.7l5.994.843c.352.048.67.227.883.497.213.27.304.61.252.945a1.266 1.266 0 0 1-.386.73l-4.346 4.06a1.2 1.2 0 0 0-.385 1.117l1.07 5.715c.119.684-.354 1.334-1.07 1.472a1.447 1.447 0 0 1-.856-.132l-5.352-2.69a1.448 1.448 0 0 0-1.263 0l-5.352 2.69c-.66.338-1.483.107-1.841-.518a1.27 1.27 0 0 1-.14-.812l1.07-5.715a1.2 1.2 0 0 0-.385-1.116L.405 9.624a1.237 1.237 0 0 1-.399-.904c0-.34.144-.665.399-.903.205-.202.477-.33.77-.366L7.17 6.61a1.334 1.334 0 0 0 1.006-.7l2.58-5.187c.225-.443.701-.72 1.22-.711h.16c.451.054.842.322 1.039.71z" fill="#FFCF5E"/><path d="M12.008 19.002a1.497 1.497 0 0 0-.664.175L6.01 21.86c-.64.311-1.452.061-1.804-.533a1.231 1.231 0 0 1-.14-.802l1.07-5.705a1.248 1.248 0 0 0-.384-1.127L.394 9.634a1.233 1.233 0 0 1 0-1.807c.205-.195.472-.324.76-.365l6.016-.853a1.3 1.3 0 0 0 1.006-.7L10.789.662c.2-.427.869-.722 1.23-.652-.011.346-.011 18.759-.011 18.992z" fill="url(#a)"/><defs><linearGradient id="a" x1="-18" y1="11.5" x2="4.571" y2="-4.313" gradientUnits="userSpaceOnUse"><stop stop-color="#FECA52"/><stop offset=".516" stop-color="#FFCE5F"/><stop offset="1" stop-color="#FF644E"/></linearGradient></defs></svg>
